X: 1
T: Old Bald Eagle  [F]
O: American
Z: 2009 John Chambers <jc:trillian.mit.edu>
S: printed MS of unknown origin
M: C
L: 1/4
K: F
[| "F"F F/-F/ F F | F> F C2 | F2 E F | "C7"G4 |
w: 1.~Old Bald* Ea-gle sail a-round, day-light is gone.
w: 2.~For-ward and back a-cross the floor, day-light is gone.
w: 3.~You swing* yours and I'll swing mine, day-light is gone.
| "C7"E E/-E/ E E | E> E C2 | "F"A2 "C7"A G | "F"F4 |]
w: 1.~Old Bald* Ea-gle sail a-round, day-light is gone.
w: 2.~Fo-rward and back a-cross the floor, day-light is gone.
w: 3.~You swing* yours and I'll swing mine, day-light is gone.

%%sep 1 1 500

